src/lib/packages/icons/src/assets/line/home-roof-trend-up.svg

<svg width="24" height="24" viewBox="0 0 24 24" fill="none" xmlns="http://www.w3.org/2000/svg">
<path d="M21.477 9.08502L14.0649 2.98907C12.8679 2.00707 11.133 2.00607 9.93598 2.98907L2.52399 9.08404C2.20499 9.34704 2.15796 9.81907 2.42096 10.1401C2.68396 10.4611 3.15799 10.5051 3.47699 10.2431L4.24994 9.60711V18.0001C4.24994 20.4181 5.58194 21.7501 7.99994 21.7501H15.9999C18.4179 21.7501 19.7499 20.4181 19.7499 18.0001V9.60711L20.5229 10.2431C20.6629 10.3581 20.8319 10.414 20.9999 10.414C21.2159 10.414 21.4309 10.321 21.5789 10.141C21.8429 9.82005 21.796 9.34802 21.477 9.08502ZM18.2499 18.0001C18.2499 19.5771 17.5769 20.2501 15.9999 20.2501H7.99994C6.42294 20.2501 5.74994 19.5771 5.74994 18.0001V8.37408L10.889 4.14911C11.532 3.62011 12.469 3.62011 13.112 4.14911L18.2509 8.37506V18.0001H18.2499ZM13.4999 11.2501H15.9999C16.0979 11.2501 16.1949 11.27 16.2869 11.308C16.4699 11.384 16.6159 11.53 16.6929 11.714C16.7309 11.806 16.7509 11.903 16.7509 12.001V14.501C16.7509 14.915 16.4149 15.251 16.0009 15.251C15.5869 15.251 15.2509 14.915 15.2509 14.501V13.8111L13.692 15.369C13.149 15.913 12.199 15.913 11.654 15.369L10.4749 14.189L8.53095 16.2161C8.38495 16.3621 8.19292 16.4361 8.00092 16.4361C7.80892 16.4361 7.61689 16.3631 7.47089 16.2161C7.17789 15.9231 7.17789 15.4481 7.47089 15.1551L9.49799 13.128C10.042 12.584 10.9929 12.584 11.5369 13.128L12.7149 14.3069L14.228 12.7491H13.5009C13.0869 12.7491 12.7509 12.4131 12.7509 11.9991C12.7509 11.5851 13.0859 11.2501 13.4999 11.2501Z" fill="currentColor"/>
</svg>

<svg xmlns="http://www.w3.org/2000/svg" width="24" height="24" fill="none"><path fill="currentColor" d="m21.477 9.085-7.412-6.096a3.26 3.26 0 0 0-4.129 0L2.524 9.084a.751.751 0 0 0 .953 1.16l.773-.637V18c0 2.418 1.332 3.75 3.75 3.75h8c2.418 0 3.75-1.332 3.75-3.75V9.607l.773.636a.749.749 0 0 0 1.056-.102.75.75 0 0 0-.102-1.056ZM18.25 18c0 1.577-.673 2.25-2.25 2.25H8c-1.577 0-2.25-.673-2.25-2.25V8.374l5.139-4.225a1.755 1.755 0 0 1 2.223 0l5.139 4.226V18h-.001Zm-4.75-6.75H16a.75.75 0 0 1 .75.751v2.5a.75.75 0 0 1-1.5 0v-.69l-1.558 1.558c-.543.544-1.493.544-2.038 0l-1.18-1.18-1.943 2.027a.748.748 0 0 1-1.06 0 .75.75 0 0 1 0-1.06l2.027-2.028c.544-.544 1.495-.544 2.039 0l1.178 1.179 1.513-1.558h-.727a.75.75 0 0 1-.001-1.499Z"/></svg>
